!!!SOCIAL_FUNCTION:	social songs
!!!PDT:	1943
!!!OTL: No_57_Social_Song_(c).krn
!!!REG: British Columbia
**kern
*staff1
=1-
*clefF4
*k[f#c#]
*M3/4
16B\LK
[8.A\J
4A\]
16F#\LL
16E\J
8D\J
=2!|:
16A\LK
8.A\J
16c#\LK
8.B\J
16c#\LK
8.B\J
=3||
*M2/4
2A\
=4
8.F#\L
16E\Jk
4D\
=5
8.F#\L
16A\Jk
8.A\L
16F#\Jk
=6
16F#\LK
[8.E\J
4E\]
=7||
*M3/4
4.D\
8BB/
4AA/
=8
8.BB/L
16D/Jk
4D\
16BB/LK
8.BB/J
=9||
*M2/4
8AA/L
8AA/J
4AA/
=10
*M3/4
2A\
8F#\L
24E\K
12D\J
==:|!
*-
